!!!OTL: LEISE ZIEHT DURCH MEIN GEMUETH
!!!ARE: Europa, Mitteleuropa, Deutschland
!!!SCT: F0836
!!!YEM: Copyright 1995, estate of Helmut Schaffrath.
**kern
*ICvox
*Ivox
*M2/4
*k[f#c#]
*D:
=1
{8a
8f#
8a
8f#
=2
8g
8a
4b}
=3
{8dd
8cc#
8dd
8cc#
=4
4a
8f#
8r}
=5
{8b
8f#
8d#
8f#
=6
8b
8f#
4g}
=7
{8a
8b
8cc#
8dd
=8
4ff#
4ee
=9
4dd
4r}
==
!!!AGN: Romanze
!!!ONB: ESAC (Essen Associative Code) Database: FINK
!!!AMT: simple duple
!!!AIN: vox
!!!EED: Helmut Schaffrath
!!!EEV: 1.0
*-
